X: 1530
T: Andy's
R: jig
M: 6/8
K: Cmajor
|:EDE CEG|FEF Ddc|BdB GAB|cBA G2 D|
EDE CEG|FEF Ddc|BdB GAB|c3 c3:|
|:g^fa g2 e|cBA G2A|cBc ABc|ed^c d2e|
g^fa g2e|cBA G2A|BdB GAB|c3 c3:|

